X:1
T:Ecce Homo, 77.77.77.77.77
T:Ecce Homo, 77.77.77.77.77
T:William Henry Monk (1823-1889)
T:Public Domain Courtesy of the Cyber Hymnal™
C:William Henry Monk (1823-1889)
Z:Public Domain
Z:Courtesy of the Cyber Hymnal™
%%score ( 1 2 ) ( 3 4 )
L:1/8
Q:1/4=110
M:4/4
K:F
V:1 treble 
V:2 treble 
V:3 bass 
V:4 bass 
V:1
|: [Dd]2 A2 B2 AG | F2 E2 D4 | [DF]2 E2 [DG]2 [DF]2 | [DB]2 (FG) [^CA]4 | D3 D D2 D2 | %5
 [DE]2 E2 [=CE]4 | [^CE]2 [CE]2 [EA]2 [CE]2 | [DG]2 (FE) [DF]4 | [DF]3 [DF] [DF]2 F2 | %9
 [FG]2 G2 [EG]4 | [EG]2 [EG]2 [Gc]2 [EG]2 | [FB]2 (AG) [FA]4 | [CA]3 [^CA] [DA]2 [DA]2 | %13
 [=B,=B]2 [EB]2 [EB]4 | [E=B]2 [EB]2 [Ee]2 [EB]2 | [Ed]2 (^c=B) [Ec]4 | [Dd]3 [Dd] A2 A2 | %17
 F2 D2 B4 |1,3 A2 A2 [FA]2 [Fd]2 | [Bd]4 ^c4 | [Fd]8 :|2,4[K:D] A2 A2 [FA]2 [Fd]2 || [Bd]4 [Ac]4 | %23
 [Ad]8 :| %24
V:2
|: x2 A2 B2 AG | F2 E2 D4 | x2 E2 x4 | x2 D2 x4 | D3 D D2 D2 | x2 (^C=B,) x4 | x8 | x2 D2 x4 | %8
 x6 F2 | x2 (ED) x4 | x8 | x2 F2 x4 | x8 | x8 | x8 | x2 E2 x4 | x4 A2 A2 | F2 D2 B4 |1,3 %18
 A2 (AG) x4 | x4 (A2 G2) | x8 :|2,4[K:D] A2 (AG) x4 || x8 | x8 :| %24
V:3
|: D2 A,2 B,2 A,G, | F,2 E,2 D,4 | [D,A,]2 [C,A,]2 [B,,G,]2 [D,A,]2 | [G,,G,]2 [B,,D,]2 [A,,E,]4 | %4
 D,3 [D,E,] [D,F,]2 [D,A,]2 | [A,,A,]2 [A,,A,]2 [A,,A,]4 | [A,,A,]2 [A,,A,]2 [^C,A,]2 [A,,A,]2 | %7
 [D,A,]2 [D,A,]2 [D,A,]4 | [B,,B,]3 [B,,B,] [B,,B,]2 [D,A,]2 | [C,C]2 [C,C]2 [C,C]4 | %10
 [C,C]2 [C,C]2 [E,C]2 [C,C]2 | [F,C]2 [F,C]2 [F,C]4 | [F,A,]3 [E,G,] [D,F,]2 [F,A,]2 | %13
 [E,A,]2 (^G,^F,) [E,G,]4 | [E,^G,]2 [E,G,]2 [G,=B,]2 [E,G,]2 | A,2 A,2 A,4 | D3 D A,2 A,2 | %17
 F,2 D,2 B,4 |1,3 A,2 A,2 [F,D]2 [D,A,]2 | [G,E]4 A,4 | [D,A,]8 :|2,4 %21
[K:D] A,2 A,2 [F,D]2 [D,A,]2 || [G,E]4 [A,E]4 | [D,F]8 :| %24
V:4
|: D2 A,2 B,2 A,G, | F,2 E,2 D,4 | x8 | x8 | D,3 x5 | x8 | x8 | x8 | x8 | x8 | x8 | x8 | x8 | %13
 x2 E,2 x4 | x8 | A,2 A,2 A,4 | D3 D A,2 A,2 | F,2 D,2 B,4 |1,3 (A,G,) (F,E,) x4 | x4 A,4 | %20
 x8 :|2,4[K:D] (A,G,) (F,E,) x4 || x8 | x8 :| %24

